!!!!SEGMENT: Mou3006-Adieu_mes_amours.krn
!!!id: Mou3006
!!!AGN: Chanson
!!!SCT: MacCracken (2014)
!!!voices: 4
!!!COM: Jean Mouton
!!!OTL: Adieu mes amours
**kern	**kern	**kern	**kern
*part4	*part3	*part2	*part1
*staff4	*staff3	*staff2	*staff1
*I"Bassus	*I"Tenor	*I"Altus	*I"Superius
*I'B	*I'T	*I'A	*I'S
*clefF4	*clefGv2	*clefGv2	*clefG2
*k[b-]	*k[b-]	*k[b-]	*k[b-]
*F:	*F:	*F:	*F:
*M2/1	*M2/1	*M2/1	*M2/1
*met(C|)	*met(C|)	*met(C|)	*met(C|)
=1	=1	=1	=1
!	!LO:TX:a:t=Canon&colon; tenor/bassus at the fourth	!	!LO:TX:a:t=Canon&colon; superius/altus at the fourth
0r	0r	1r	1g
.	.	1d	1b-y
=2	=2	=2	=2
0r	0r	1f	1a
.	.	1e	1g
=3	=3	=3	=3
0r	0r	1d	1dd
.	.	1a	2r
.	.	.	[2cc
=4	=4	=4	=4
0r	0r	2r	2cc]
.	.	1g	2b-y
.	.	.	1a
.	.	2f	.
=5	=5	=5	=5
1r	1G	1e	1g
1D	1B-y	1d	[1f
=6	=6	=6	=6
1F	1A	0c	1f]
1E	1G	.	2r
.	.	.	2g
=7	=7	=7	=7
1D	1d	2r	2a
.	.	2d	2a
1A	2r	2e	1cc
.	[2c	2e	.
=8	=8	=8	=8
2r	2c]	1g	1dd
1G	2B-y	.	.
.	1A	1a	1r
2F	.	.	.
=9	=9	=9	=9
1E	1G	1r	2r
.	.	.	2g
1D	1F	2r	2a
.	.	2d	2a
=10	=10	=10	=10
1C	0r	2e	1cc
.	.	2e	.
1r	.	1g	1dd
=11	=11	=11	=11
0r	0r	1a	1cc
.	.	1g	2b-y
.	.	.	2g
=12	=12	=12	=12
0r	1r	2f	1a
.	.	2d	.
.	2r	1e	1g
.	2G	.	.
=13	=13	=13	=13
2r	1B-y	1d	2.f
2D	.	.	.
.	.	.	4g
1F	1A	2.c	4a
.	.	.	4b-y
.	.	.	[2cc
.	.	4d	.
=14	=14	=14	=14
1E	1G	4e	4cc]
.	.	4f	4b-y
.	.	2.g	2g
1D	1d	.	2.a
.	.	4f	.
.	.	2d	.
.	.	.	4b-y
=15	=15	=15	=15
1A	1c	2.e	2cc
.	.	.	2a
.	.	4f	.
1G	2B-y	2g	2d
.	2G	2e	[2g
=16	=16	=16	=16
2F	1A	2A	2g]
2D	.	1d	2f#i
1E	1G	.	1g
.	.	2c#i	.
=17	=17	=17	=17
1D	1r	1d	2r
.	.	.	2a
1r	1G	2r	2b-y
.	.	2e	2b-y
=18	=18	=18	=18
1D	2d	2f	2.a
.	2d	2f	.
.	.	.	4b-y
2A	1c	2.e	4cc
.	.	.	4dd
2A	.	.	[2cc
.	.	4f	.
=19	=19	=19	=19
1G	1d	4g	2cc]
.	.	4a	.
.	.	1g	2b-y
1A	1r	.	2cc
.	.	2f	2cc
=20	=20	=20	=20
0r	0r	2g	2b-y
.	.	2g	2g
.	.	2f	1a
.	.	2d	.
=21	=21	=21	=21
1r	1c	1e	1g
1G	2B-y	1d	1b-y
.	2G	.	.
=22	=22	=22	=22
2F	1A	1f	2a
2D	.	.	2f
1E	2G	2e	2r
.	2G	2c	2g
=23	=23	=23	=23
2D	2d	2r	2.a
2D	2d	2d	.
.	.	.	4b-y
2A	1c	2.e	4cc
.	.	.	4dd
2A	.	.	[2cc
.	.	4f	.
=24	=24	=24	=24
1G	1d	4g	2cc]
.	.	4a	.
.	.	1g	2b-y
1A	1r	.	1cc
.	.	2f#i	.
=25	=25	=25	=25
1r	1c	1g	2r
.	.	.	2g
1G	2B-y	2r	2d
.	2G	2d	[2g
=26	=26	=26	=26
2F	1A	2A	2g]
2D	.	1d	2f#i
1E	1G	.	1g
.	.	2c#i	.
=27	=27	=27	=27
1D	0r	1d	2r
.	.	.	2a
1r	.	2r	1b-y
.	.	2e	.
=28	=28	=28	=28
0r	0r	1f	1a
.	.	1e	1g
=29	=29	=29	=29
0r	0r	1d	1dd
.	.	1a	2r
.	.	.	[2cc
=30	=30	=30	=30
0r	0r	2r	2cc]
.	.	1g	2b-y
.	.	.	1a
.	.	2f	.
=31	=31	=31	=31
1r	1G	1e	1g
1D	1B-y	1d	[1f
=32	=32	=32	=32
1F	1A	0c	1f]
1E	1G	.	2r
.	.	.	2g
=33	=33	=33	=33
1D	1d	2r	2a
.	.	2d	2a
1A	2r	2e	1cc
.	[2c	2e	.
=34	=34	=34	=34
2r	2c]	1g	1dd
1G	2B-y	.	.
.	1A	1a	1r
2F	.	.	.
=35	=35	=35	=35
1E	1G	1r	2r
.	.	.	2g
1D	1F	2r	2a
.	.	2d	2a
=36	=36	=36	=36
1C	0r	2e	1.cc
.	.	2e	.
1r	.	1g	.
.	.	.	2dd
=37	=37	=37	=37
0r	0r	1a	1cc
.	.	1g	2b-y
.	.	.	2g
=38	=38	=38	=38
0r	1r	2f	1a
.	.	2d	.
.	1G	1e	1g
=39	=39	=39	=39
1D	1B-y	1d	2.f
.	.	.	4g
1F	1A	2.c	4a
.	.	.	4b-y
.	.	.	[2cc
.	.	4d	.
=40	=40	=40	=40
1E	1G	4e	4cc]
.	.	4f	4b-y
.	.	2.g	2g
1D	1d	.	2.a
.	.	4f	.
.	.	2d	.
.	.	.	4b-y
=41	=41	=41	=41
1A	1c	2.e	2cc
.	.	.	2a
.	.	4f	.
1G	2B-y	2g	2d
.	2G	2e	[2g
=42	=42	=42	=42
2F	1A	2A	2g]
2D	.	1d	2f#i
1E	1G	.	1g
.	.	2c#i	.
=43	=43	=43	=43
1D	1r	1d	1a
1r	1c	1e	[1gl
=44	=44	=44	=44
00Gl	00B-yl	00dl	00g]
==	==	==	==
*-	*-	*-	*-
!!!system-decoration: [*]
!!!RDF**kern: i = editorial accidental
!!!RDF**kern: l = terminal long
!!!ENC: Benjamin Ory
!!!END: 2021/1/7
!!!EED: Benjamin Ory
!!!EEV: 2021/05/02
!!!YEC: Copyright 2021 Benjamin Ory, All Rights Reserved
!!!ONB: Translated from MusicXML on 2021/05/02
